packages/icons/src/chaos-hubs.svg

<svg viewBox="0 0 16 16" fill="none" xmlns="http://www.w3.org/2000/svg">
<path d="M8.58792 2.48365C9.00693 2.26625 9.2938 1.82384 9.2938 1.31343C9.2938 0.588043 8.71441 0 7.99968 0C7.28495 0 6.70557 0.588043 6.70557 1.31343C6.70557 1.82384 6.99244 2.26625 7.41145 2.48365V4.77612C7.41145 4.90801 7.51679 5.01493 7.64674 5.01493H8.35263C8.48258 5.01493 8.58792 4.90801 8.58792 4.77612V2.48365Z" fill="black"/>
<path d="M10 8.00007C10 9.12112 9.10456 10.0299 8 10.0299C6.89544 10.0299 6 9.12112 6 8.00007C6 6.87902 6.89544 5.97021 8 5.97021C9.10456 5.97021 10 6.87902 10 8.00007Z" fill="black"/>
<path d="M8.58792 13.5161V11.2237C8.58792 11.0918 8.48258 10.9849 8.35263 10.9849H7.64674C7.51679 10.9849 7.41145 11.0918 7.41145 11.2237V13.5161C6.99244 13.7335 6.70557 14.176 6.70557 14.6864C6.70557 15.4118 7.28495 15.9998 7.99968 15.9998C8.71441 15.9998 9.2938 15.4118 9.2938 14.6864C9.2938 14.176 9.00693 13.7335 8.58792 13.5161Z" fill="black"/>
<path d="M13.435 7.40294H11.1762C11.0463 7.40294 10.9409 7.50986 10.9409 7.64175V8.35817C10.9409 8.49006 11.0463 8.59697 11.1762 8.59697H13.435C13.6492 9.02224 14.0851 9.31339 14.588 9.31339C15.3027 9.31339 15.8821 8.72535 15.8821 7.99996C15.8821 7.27456 15.3027 6.68652 14.588 6.68652C14.0851 6.68652 13.6492 6.97768 13.435 7.40294Z" fill="black"/>
<path d="M2.56481 7.40294C2.3506 6.97768 1.9147 6.68652 1.41179 6.68652C0.697071 6.68652 0.117676 7.27456 0.117676 7.99996C0.117676 8.72535 0.697071 9.31339 1.41179 9.31339C1.9147 9.31339 2.3506 9.02224 2.56481 8.59697H4.82356C4.95351 8.59697 5.05885 8.49006 5.05885 8.35817V7.64175C5.05885 7.50986 4.95351 7.40294 4.82356 7.40294H2.56481Z" fill="black"/>
<path d="M4.59031 3.74854C4.73514 3.2941 4.62975 2.77539 4.27415 2.41448C3.76876 1.90155 2.94937 1.90155 2.44398 2.41448C1.93859 2.92741 1.93859 3.75903 2.44398 4.27196C2.79958 4.63287 3.31067 4.73983 3.75841 4.59284L5.35561 6.21386C5.44749 6.30711 5.59645 6.30711 5.68836 6.21386L6.18749 5.70728C6.27937 5.61402 6.27937 5.46281 6.18749 5.36956L4.59031 3.74854Z" fill="black"/>
<path d="M12.2416 11.4068L10.6444 9.78576C10.5526 9.69251 10.4036 9.69251 10.3117 9.78576L9.81256 10.2923C9.72068 10.3856 9.72068 10.5368 9.81256 10.6301L11.4097 12.2511C11.2649 12.7055 11.3703 13.2242 11.7259 13.5851C12.2313 14.0981 13.0507 14.0981 13.5561 13.5851C14.0615 13.0722 14.0615 12.2406 13.5561 11.7277C13.2005 11.3668 12.6894 11.2598 12.2416 11.4068Z" fill="black"/>
<path d="M12.1889 4.54011C12.6367 4.6871 13.1477 4.58014 13.5033 4.21923C14.0087 3.7063 14.0087 2.87468 13.5033 2.36175C12.9979 1.84882 12.1786 1.84882 11.6732 2.36175C11.3176 2.72266 11.2122 3.24137 11.357 3.69579L9.75983 5.31683C9.66795 5.41009 9.66795 5.56127 9.75983 5.65455L10.259 6.16113C10.3508 6.25438 10.4998 6.25438 10.5917 6.16113L12.1889 4.54011Z" fill="black"/>
<path d="M3.81116 11.46C3.36339 11.313 2.85231 11.42 2.49671 11.7809C1.99133 12.2938 1.99133 13.1254 2.49671 13.6384C3.0021 14.1513 3.82149 14.1513 4.32688 13.6384C4.68248 13.2774 4.78787 12.7587 4.64304 12.3043L6.24022 10.6833C6.3321 10.59 6.3321 10.4388 6.24022 10.3456L5.74109 9.83898C5.64921 9.74573 5.50022 9.74573 5.40834 9.83898L3.81116 11.46Z" fill="black"/>
</svg>

<svg viewBox="0 0 16 16" fill="currentColor" xmlns="http://www.w3.org/2000/svg"><path d="M8.588 2.484c.419-.218.706-.66.706-1.17C9.294.587 8.714 0 8 0c-.715 0-1.294.588-1.294 1.313 0 .51.286.953.705 1.17v2.293c0 .132.106.239.236.239h.706c.13 0 .235-.107.235-.239V2.484ZM10 8c0 1.121-.895 2.03-2 2.03S6 9.12 6 8c0-1.121.895-2.03 2-2.03s2 .91 2 2.03Zm-1.412 5.516v-2.292a.237.237 0 0 0-.235-.24h-.706a.237.237 0 0 0-.236.24v2.292c-.419.217-.705.66-.705 1.17C6.706 15.412 7.285 16 8 16c.714 0 1.294-.588 1.294-1.314 0-.51-.287-.953-.706-1.17Zm4.847-6.113h-2.259a.237.237 0 0 0-.235.239v.716c0 .132.105.239.235.239h2.259c.214.425.65.716 1.153.716.715 0 1.294-.588 1.294-1.313s-.58-1.313-1.294-1.313c-.503 0-.939.29-1.153.716Zm-10.87 0a1.292 1.292 0 0 0-1.153-.716C.697 6.687.118 7.275.118 8s.58 1.313 1.294 1.313c.503 0 .939-.29 1.153-.716h2.259c.13 0 .235-.107.235-.239v-.716a.237.237 0 0 0-.235-.24h-2.26ZM4.59 3.749c.145-.455.04-.974-.316-1.335a1.28 1.28 0 0 0-1.83 0 1.327 1.327 0 0 0 0 1.858c.356.36.867.468 1.314.32l1.598 1.622c.091.093.24.093.332 0l.5-.507a.241.241 0 0 0 0-.337L4.59 3.749Zm7.652 7.658-1.598-1.621a.233.233 0 0 0-.332 0l-.5.506a.241.241 0 0 0 0 .338l1.598 1.621c-.145.455-.04.973.316 1.334a1.28 1.28 0 0 0 1.83 0 1.327 1.327 0 0 0 0-1.857 1.28 1.28 0 0 0-1.314-.321Zm-.053-6.867c.448.147.959.04 1.314-.32a1.327 1.327 0 0 0 0-1.858 1.28 1.28 0 0 0-1.83 0c-.355.36-.46.88-.316 1.334L9.76 5.316a.241.241 0 0 0 0 .339l.499.506c.092.093.24.093.333 0l1.597-1.62Zm-8.378 6.92a1.28 1.28 0 0 0-1.314.32 1.327 1.327 0 0 0 0 1.858 1.28 1.28 0 0 0 1.83 0c.355-.36.46-.88.316-1.334l1.597-1.62a.241.241 0 0 0 0-.338l-.499-.507a.233.233 0 0 0-.333 0L3.811 11.46Z" fill="#000"/></svg>
